X: 25826
T: Master Crowley's
R: reel
M: 4/4
K: Eminor
|:B,(E {F}E/D/E) B,EGE|FDB,D A,DFD|B,(E {F}E/D/E) B,EGB|AFDE FEED|
B,(E {F}E/D/E) B,EGE|FDB,D A,DFD|B,(E {F}E/D/E) B,EGB|1 AFdF FEED:|2 AFdF FEEA||
|:Bbab gaeg|fdad bdad|Bbab gaeg|fdAF GEEA|
Bbab gaeg|fdad bdad|EFGA BABd|1 AFdF FEEA:|2 AFdF FEED||

